X:1
T:Title
%%score { ( 1 4 5 ) | ( 2 3 ) }
L:1/8
Q:1/4=100
M:4/4
K:Db
V:1 treble nm="Grand Piano"
V:4 treble 
V:5 treble 
V:2 bass 
V:3 bass 
V:1
 F2 F2 G2 [CE][CE] | F2 FF G2 [CE]2 | F2 G2 A2 FA | BAGF [CE]4 | [EG]2 [DG]2 [CG]2 [CE][CE] | %5
w: C.~Austin~Miles * * * *|||||
 [DF]2 [DF][EG] [FA]2 [Fd]2 | [Ec]2 [=Ge]2 e2 AB | [Ac][Ac] [=GB]2 z2 _G2 | d6 z2 | z B3- B4 | %10
w: |||||
 [FA]2 [DF][FA] [GB][FA] [A,DF]2 | [CE]6[K:bass] z2 | z2[K:treble] dd d2 [Fd][FA] | B d3- d2 dB | %14
w: ||||
[M:19/16] A-<AA-<AAe/-e/-e-<ed3/2 |[M:4/4] d2- [Gd-]2 [Fd]2 z2 |] %16
w: ||
V:2
 [D,A,D]2 [=D,A,_C]2 [E,A,=C]2 [A,,A,][A,,A,] | [D,A,D]2 [=D,A,_C][D,A,C] [E,A,=C]2 [A,,A,]2 | %2
 [D,A,D]2 [E,A,C]2 [F,A,D]2 [D,A,D][F,A,D] | D2 z2 z4 | [A,,A,]2 [A,,A,]2 [A,,A,]2 [A,,A,][A,,A,] | %5
 [D,A,]2 [D,A,][D,A,] [D,D]2 [D,A,]2 | [E,A,]2 [E,B,]2[K:treble] [A,CA]2 [A,C][A,DA] | %7
 [E,E][E,E] [E,D]2 [A,C]4 | [D,A,]>[D,A,] [D,A,]>[D,A,] [D,A,] [D,D]3 | %9
 [G,DG]>[G,D] [G,D]>[G,D] [G,D] [G,D]3 | [D,D]2 [D,A,][D,D] [D,D][D,D] F,2 | A,2 z z/ B,/ A,2 z2 | %12
 z2[K:treble] [A,F][A,F] [A,F]2[K:bass] [D,A,][D,D] | %13
 [G,DG] [G,B,G]3- [G,B,G]2[K:treble] [G,B,G][G,CG] | %14
[M:19/16] [A,DF]-<[A,DF][A,DF]-<[A,DF][A,CG][A,CG]/-[A,CG]/-[A,CG]-<[A,CG][A,G]3/2 | %15
[M:4/4][K:bass] A,2 z2 z4 |] %16
V:3
 x8 | x8 | x8 | G,[F,A,][E,A,C][D,A,D] [A,,A,]4 | x8 | x8 | x4[K:treble] x4 | x8 | x8 | x8 | x8 | %11
 z2 A,2 z4 | x2[K:treble] x4[K:bass] x2 | x6[K:treble] x2 |[M:19/16] x19/2 | %15
[M:4/4][K:bass] D,2- [D,-B,]2 [D,A,]2 z2 |] %16
V:4
 x8 | x8 | x8 | x8 | x8 | x8 | x8 | z4 A4 | F>F F>F .F2 A2 | .c>G G>G G G3 | x8 | %11
 z4 z[K:bass] G,F,E, | D,6[K:treble] z2 | x8 |[M:19/16] x19/2 |[M:4/4] F2 z2 z4 |] %16
V:5
 x8 | x8 | x8 | x8 | x8 | x8 | x8 | x8 | z4 z F3 | x8 | x8 | x5[K:bass] x3 | x2[K:treble] x6 | x8 | %14
[M:19/16] x19/2 |[M:4/4] x8 |] %16

